public/flags/WW.svg

<svg fill="none" height="53" viewBox="0 0 61 53" width="61" xmlns="http://www.w3.org/2000/svg" xmlns:xlink="http://www.w3.org/1999/xlink"><mask id="a" height="43" maskUnits="userSpaceOnUse" width="59" x="1" y="3"><rect fill="#fff" height="42.5" rx="4.24286" width="59" x="1" y="3"/></mask><rect fill="#fff" height="42.5" rx="4.24286" width="59" x="1" y="3"/><g mask="url(#a)"><path d="m1 3h59v42.5h-59z" fill="#19bfbf"/><path clip-rule="evenodd" d="m30.5 39.8333c8.5341 0 15.4524-6.9769 15.4524-15.5833 0-8.6065-6.9183-15.58337-15.4524-15.58337s-15.4524 6.97687-15.4524 15.58337c0 8.6064 6.9183 15.5833 15.4524 15.5833zm12.5656-14.1666c-.5216 4.7582-3.6395 8.7272-7.8933 10.4343 1.3697-2.8135 2.1699-6.479 2.3241-10.4343zm-12.5656 11.3333c.2729 0 .5438-.0088.8124-.0259 1.9292-2.3044 3.1665-6.5282 3.3716-11.3074h-8.368c.2051 4.7792 1.4425 9.003 3.3717 11.3074.2685.0171.5394.0259.8123.0259zm-4.6722-.8989c-4.2539-1.7071-7.3719-5.6762-7.8935-10.4344h5.5694c.1541 3.9554.9543 7.6208 2.3241 10.4344zm.4882-13.2677h8.368c-.2051-4.7793-1.4425-9.0032-3.3717-11.3075-.2686-.0172-.5395-.0259-.8123-.0259-.2729 0-.5437.0087-.8122.0258-1.9293 2.3043-3.1667 6.5283-3.3718 11.3076zm-.4881-10.4346c-1.3698 2.8136-2.1701 6.4791-2.3242 10.4346h-5.5694c.5215-4.7583 3.6395-8.7275 7.8936-10.4346zm17.2378 10.4346h-5.5693c-.1542-3.9555-.9544-7.621-2.3242-10.4345 4.2539 1.7071 7.3719 5.6762 7.8935 10.4345z" fill="#fff" fill-rule="evenodd"/></g></svg>

<svg width="61" height="53" viewBox="0 0 61 53" fill="none" xmlns="http://www.w3.org/2000/svg">
<rect x="1" y="3" width="59" height="42.5" rx="4.24286" fill="white"/>
<mask id="mask0" mask-type="alpha" maskUnits="userSpaceOnUse" x="1" y="3" width="59" height="43">
<rect x="1" y="3" width="59" height="42.5" rx="4.24286" fill="white"/>
</mask>
<g mask="url(#mask0)">
<rect x="1" y="3" width="59" height="42.5" fill="#19BFBF"/>
<path fill-rule="evenodd" clip-rule="evenodd" d="M30.5 39.8333C39.0341 39.8333 45.9524 32.8564 45.9524 24.25C45.9524 15.6435 39.0341 8.66663 30.5 8.66663C21.9659 8.66663 15.0476 15.6435 15.0476 24.25C15.0476 32.8564 21.9659 39.8333 30.5 39.8333ZM43.0656 25.6667C42.544 30.4249 39.4261 34.3939 35.1723 36.101C36.542 33.2875 37.3422 29.622 37.4964 25.6667H43.0656ZM30.5 37C30.7729 37 31.0438 36.9912 31.3124 36.9741C33.2416 34.6697 34.4789 30.4459 34.684 25.6667H26.316C26.5211 30.4459 27.7585 34.6697 29.6877 36.9741C29.9562 36.9912 30.2271 37 30.5 37ZM25.8278 36.1011C21.5739 34.394 18.4559 30.4249 17.9343 25.6667H23.5037C23.6578 29.6221 24.458 33.2875 25.8278 36.1011ZM26.316 22.8334H34.684C34.4789 18.0541 33.2415 13.8302 31.3123 11.5259C31.0437 11.5087 30.7728 11.5 30.5 11.5C30.2271 11.5 29.9563 11.5087 29.6878 11.5258C27.7585 13.8301 26.5211 18.0541 26.316 22.8334ZM25.8279 12.3988C24.4581 15.2124 23.6578 18.8779 23.5037 22.8334H17.9343C18.4558 18.0751 21.5738 14.1059 25.8279 12.3988ZM43.0657 22.8334H37.4964C37.3422 18.8779 36.542 15.2124 35.1722 12.3989C39.4261 14.106 42.5441 18.0751 43.0657 22.8334Z" fill="white"/>
</g>
</svg>
